X:80
T:Svensk Annas Vals (Svenskarnasvalsen)
O: Sweden
R: Waltz
Z: John Chambers <jc@trillian.mit.edu>
M: 3/4
Q:150
L: 1/4
F:http://trillian.mit.edu/~jc/music/abc/Contra/waltz/SvenskAnnasV.abc	 2004-08-25 03:00:46 UT
K: D
%P:A
[V:1] F/G/ | "D"A f> e | "G"d c B | "D"A F G | A2 F/G/ \
| "D"A f> e | d c d | "E"e>fe/d/ | "A7"c2 F/G/ |
[V:2] D/E/ | F A> e | B A G | F D E | F2 D/E/ \
| F A> e | B A A | ^G>fe/d/ | =G2 D/E/ |
[V:1] "D"A f> e | "G"d c B | "D"A F G | A2 A \
| "G"B g f | "A7"e d c | "D"d> ed/c/ | d2 :|
[V:2] F A> e | B A G | F D E | F2 F \
| G B A | G F E | F> GF/E/ | F2 :|
%P:B
[V:1] F/G/ | "D"A2 f | A> FG/A/ | "G"B2 g | "Em"B2 A/B/ \
| "A7"c E> F | G> FG/A/ | B A G | "D"[A2F2] F/G/ |
[V:2] D/E/ | F2 A | F> DE/F/ | G2 B | [G2E2] F/G/ \
| A C> D | E> DE/F/ | G F E | D2 D/E/ |
[V:1] "D"A2 f | A> FG/A/ | "G"B2 g | "Em"B2 B/d/ \
| "A7"c> dc/B/ | A f e | "D"d> ed/c/ | d2 :|
[V:2] F2 A | F> DE/F/ | G2 B | [G2E2] G/B/ \
| A> BA/G/ | F A G | F> GF/E/ | F2 :|

